X:1
T:The Swan Swims Bonnie O
M:4/4
L:1/4
K:G
 d| de/2-f/2 g d| e f g2| de/2-f/2 g3/2 f/2| e3/2 d/2 d|e/2-f/2| g dd/2-c/2 B|\
 c B A d/2B/2| G2 B2| d B G| d/2B/2| G2 B2| A G G||
